X:252
T: WENN DIE HOFFNUNG NICHT WAER, SO LEBT ICH NICHT MEHR
N: Z0251
O: Europa, Mitteleuropa, Deutschland, Ulm
R: lyrisches Lied, Romanze
M: 3/4
L: 1/8
K: F
Ac | f2c2A2 | F4
A2 | B2G2c2 | F2z2
FG | A2A2B2 | c4
c2 | d2dc=B2 | c2z2
cc | A2F2G2 | A4
GG | A2A2c2 | =B4
FG | A2A2B2 | c4
AA | B2G2E2 | F4

